package/converter/svg/solid/face-smile-plus.svg

<svg xmlns="http://www.w3.org/2000/svg" viewBox="0 0 640 512"><!-- Font Awesome Pro 6.0.0-alpha2 by @fontawesome - https://fontawesome.com License - https://fontawesome.com/license (Commercial License) --><path d="M616 72H568V24C568 10.745 557.255 0 544 0L544 0C530.745 0 520 10.745 520 24V72H472C458.745 72 448 82.745 448 96V96C448 109.255 458.745 120 472 120H520V168C520 181.255 530.745 192 544 192L544 192C557.255 192 568 181.255 568 168V120H616C629.255 120 640 109.255 640 96V96C640 82.745 629.255 72 616 72ZM224 64C100.289 64 0 164.289 0 288S100.289 512 224 512C347.713 512 448 411.711 448 288S347.713 64 224 64ZM144 208C161.645 208 176 222.355 176 240S161.645 272 144 272S112 257.645 112 240S126.355 208 144 208ZM332 367.25C304.672 398.219 265.312 416 224 416C182.703 416 143.328 398.219 115.984 367.25C110.141 360.625 110.766 350.5 117.391 344.656S134.125 339.469 139.984 346.062C161.25 370.188 191.875 384 224 384S286.75 370.188 308 346.062C313.844 339.469 324.016 338.812 330.578 344.656C337.203 350.5 337.844 360.625 332 367.25ZM304 272C286.355 272 272 257.645 272 240S286.355 208 304 208S336 222.355 336 240S321.645 272 304 272Z"/></svg>

<svg xmlns="http://www.w3.org/2000/svg" viewBox="0 0 640 512"><!--! Font Awesome Pro 6.6.0 by @fontawesome - https://fontawesome.com License - https://fontawesome.com/license (Commercial License) Copyright 2024 Fonticons, Inc. --><path d="M544 0c-13.3 0-24 10.7-24 24l0 48-48 0c-13.3 0-24 10.7-24 24s10.7 24 24 24l48 0 0 48c0 13.3 10.7 24 24 24s24-10.7 24-24l0-48 48 0c13.3 0 24-10.7 24-24s-10.7-24-24-24l-48 0 0-48c0-13.3-10.7-24-24-24zM224 512a224 224 0 1 0 0-448 224 224 0 1 0 0 448zM144.4 208a32 32 0 1 1 0 64 32 32 0 1 1 0-64zm128 32a32 32 0 1 1 64 0 32 32 0 1 1 -64 0zM140 346.1c20.5 23.3 50.6 37.9 84 37.9s63.5-14.6 84-37.9c5.8-6.6 16-7.3 22.6-1.4s7.3 16 1.4 22.6C305.6 397.1 267 416 224 416s-81.6-18.9-108-48.7c-5.8-6.6-5.2-16.7 1.4-22.6s16.7-5.2 22.6 1.4z"/></svg>
